X:3364
L:1/8
M:3/4
K:G
 A>(B cd) ef | (3(gag e) ag e2 | e>f (g/a/)g/f/ d>(e | f>)gf/ (ec) A2 | A>B (cd) (cB) | GA A3 E :: 
 a>b a^g e>f | (g/a/)g/f/ d(f/d/) e2 | a>b a^g e>f | (g/a/)g/f/ d(f/d/) e2 | A>(B cd) ef | 
 (g/a/)g/f/ d(f/d/) e2 | A>B (cd) (cB) | GA A3 E :|

